X:50
T:Sam's Humour THO1.050
M:2/4
L:1/8
Z:vmp. Peter Dunk 2012.from a transcription by Fynn Titford-Mock 2006
B:Thompson's Compleat Collection of 200 Favourite Country Dances Vol.I,1758
Q:1/4=140
U:w=!wedge!
K:D
A d2 e|Tf2 ed|Tf2 ed|ecTBA|A d2 e|f2 ed|ecBA|{B}A4:|
|:(3Bcd AA|(3cde wAwA|(3def wAwA|(3efg wAwA|\
(3agf wawa|(3gfe wgwg|(3fed wdwd|d4:|

